fs/vehicle_car_48_filled.svg

<svg viewBox="0 0 48 48" fill="none" xmlns="http://www.w3.org/2000/svg" height="1em" width="1em">
  <path d="M9.19777 16.5L8.76513 18.2666C7.15016 18.8689 6 20.4251 6 22.25V39.75C6 41.5449 7.45507 43 9.25 43H12.75C14.5449 43 16 41.5449 16 39.75V36.5H32V39.75C32 41.5449 33.4551 43 35.25 43H38.75C40.5449 43 42 41.5449 42 39.75V22.25C42 20.4095 40.83 18.8422 39.1933 18.2513L38.6929 16.5H40.75C41.4404 16.5 42 15.9404 42 15.25C42 14.5596 41.4404 14 40.75 14H37.9786L36.988 10.533C36.2214 7.84986 33.769 6 30.9785 6H16.6733C13.7941 6 11.2875 7.96683 10.6027 10.7633L9.81001 14H7.25C6.55964 14 6 14.5596 6 15.25C6 15.9404 6.55964 16.5 7.25 16.5H9.19777ZM16.6733 8.5H30.9785C32.6528 8.5 34.1243 9.60992 34.5842 11.2198L36.5214 18H11.4043L13.0309 11.358C13.4418 9.6801 14.9458 8.5 16.6733 8.5ZM34.5 36.5H39.5V39.75C39.5 40.1642 39.1642 40.5 38.75 40.5H35.25C34.8358 40.5 34.5 40.1642 34.5 39.75V36.5ZM8.5 39.75V36.5H13.5V39.75C13.5 40.1642 13.1642 40.5 12.75 40.5H9.25C8.83579 40.5 8.5 40.1642 8.5 39.75ZM14 28C12.8954 28 12 27.1046 12 26C12 24.8954 12.8954 24 14 24C15.1046 24 16 24.8954 16 26C16 27.1046 15.1046 28 14 28ZM36 26C36 27.1046 35.1046 28 34 28C32.8954 28 32 27.1046 32 26C32 24.8954 32.8954 24 34 24C35.1046 24 36 24.8954 36 26ZM20.25 28H27.75C28.4404 28 29 28.5596 29 29.25C29 29.9404 28.4404 30.5 27.75 30.5H20.25C19.5596 30.5 19 29.9404 19 29.25C19 28.5596 19.5596 28 20.25 28Z" fill="#212121"/>
</svg>

<svg viewBox="0 0 48 48" fill="none" xmlns="http://www.w3.org/2000/svg" height="1em" width="1em">
  <path d="m9.198 16.5-.433 1.767A4.252 4.252 0 0 0 6 22.25v17.5A3.25 3.25 0 0 0 9.25 43h3.5A3.25 3.25 0 0 0 16 39.75V36.5h16v3.25A3.25 3.25 0 0 0 35.25 43h3.5A3.25 3.25 0 0 0 42 39.75v-17.5c0-1.84-1.17-3.408-2.807-3.999l-.5-1.751h2.057a1.25 1.25 0 1 0 0-2.5h-2.771l-.991-3.467A6.25 6.25 0 0 0 30.978 6H16.674a6.25 6.25 0 0 0-6.07 4.763L9.81 14H7.25a1.25 1.25 0 1 0 0 2.5h1.948Zm7.475-8H30.98a3.75 3.75 0 0 1 3.605 2.72L36.521 18H11.404l1.627-6.642A3.75 3.75 0 0 1 16.673 8.5Zm17.827 28h5v3.25a.75.75 0 0 1-.75.75h-3.5a.75.75 0 0 1-.75-.75V36.5Zm-26 3.25V36.5h5v3.25a.75.75 0 0 1-.75.75h-3.5a.75.75 0 0 1-.75-.75ZM14 28a2 2 0 1 1 0-4 2 2 0 0 1 0 4Zm22-2a2 2 0 1 1-4 0 2 2 0 0 1 4 0Zm-15.75 2h7.5a1.25 1.25 0 1 1 0 2.5h-7.5a1.25 1.25 0 1 1 0-2.5Z" fill="#212121"/>
</svg>
